src/pos-icons/projector-screen.svg

<svg height="24" viewBox="0 0 24 24" width="24" xmlns="http://www.w3.org/2000/svg"><path d="m4 2a1 1 0 0 0 -1 1v1a1 1 0 0 0 1 1h1v9h6v2.59l-4.21 4.2 1.42 1.42 2.79-2.8v2.59h2v-2.59l2.79 2.8 1.42-1.42-4.21-4.2v-2.59h6v-9h1a1 1 0 0 0 1-1v-1a1 1 0 0 0 -1-1z"/></svg>

<?xml version="1.0" encoding="UTF-8"?><!DOCTYPE svg PUBLIC "-//W3C//DTD SVG 1.1//EN" "http://www.w3.org/Graphics/SVG/1.1/DTD/svg11.dtd"><svg xmlns="http://www.w3.org/2000/svg" xmlns:xlink="http://www.w3.org/1999/xlink" version="1.1" id="mdi-projector-screen" width="24" height="24" viewBox="0 0 24 24"><path d="M4,2A1,1 0 0,0 3,3V4A1,1 0 0,0 4,5H5V14H11V16.59L6.79,20.79L8.21,22.21L11,19.41V22H13V19.41L15.79,22.21L17.21,20.79L13,16.59V14H19V5H20A1,1 0 0,0 21,4V3A1,1 0 0,0 20,2H4Z" /></svg>
